_site/icons/colour_gas_mask.svg

<svg clip-rule="evenodd" fill-rule="evenodd" height="24" stroke-linecap="round" stroke-linejoin="round" stroke-miterlimit="1.5" width="24" xmlns="http://www.w3.org/2000/svg"><g stroke="#000"><path d="m12 23.317c4.288 0 10.081-2.614 7.796-12.014-1.681-6.919-4.742-10.724-7.796-10.724s-6.115 3.805-7.796 10.724c-2.285 9.4 3.508 12.014 7.796 12.014" fill="#c7ecee"/><g fill="#dcdde1"><path d="m12 21.492c3.321-.167 7.449-2.748 5.68-10.029-1.302-5.358-3.315-8.661-5.68-8.661s-4.394 3.28-5.696 8.639c-1.77 7.28 2.375 10.051 5.696 10.051z" stroke-width=".6"/><circle cx="12" cy="14.136" r="2.852" stroke-width="1.5"/></g></g></svg>

<?xml version="1.0" encoding="UTF-8" standalone="no"?><!DOCTYPE svg PUBLIC "-//W3C//DTD SVG 1.1//EN" "http://www.w3.org/Graphics/SVG/1.1/DTD/svg11.dtd"><svg width="24px" height="24px" version="1.1" xmlns="http://www.w3.org/2000/svg" xmlns:xlink="http://www.w3.org/1999/xlink" xml:space="preserve" xmlns:serif="http://www.serif.com/" style="fill-rule:evenodd;clip-rule:evenodd;stroke-linecap:round;stroke-linejoin:round;stroke-miterlimit:1.5;"><path d="M12,23.317C16.288,23.317 22.081,20.703 19.796,11.303C18.115,4.384 15.054,0.579 12,0.579C8.946,0.579 5.885,4.384 4.204,11.303C1.919,20.703 7.712,23.317 12,23.317" style="fill:rgb(199,236,238);stroke:black;stroke-width:1px;"/><path d="M12,21.492C15.321,21.325 19.449,18.744 17.68,11.463C16.378,6.105 14.365,2.802 12,2.802C9.635,2.802 7.606,6.082 6.304,11.441C4.534,18.721 8.679,21.492 12,21.492Z" style="fill:rgb(220,221,225);stroke:black;stroke-width:0.6px;"/><circle cx="12" cy="14.136" r="2.852" style="fill:rgb(220,221,225);stroke:black;stroke-width:1.5px;"/></svg>
